X:24
T:Humours of Kiltyclougher, The
M: 6/8
L: 1/8
K: Dmix
|:B|AGD G2E|c2E G2E|~D3 D2E|GED ~D2B|
AGD G2E|c2E EFG|~A3 BGE|ABA A2:|
B|:c2B c2d|ecA ABc|BAG GAB|dBG G2B|
c2B c2d|ecA ABc|BAG dBG|ABA A2:|
T: The Rolling Waves
R: jig
M: 6/8
L: 1/8
K: Dmaj
|:F2 E EDE|F2 D DED|F2 E EFA|d2 e fdA|
F2 E EDE|F2 D DED|AFE EFA|B3 d3:|
|:ABd e2 f|d2 cB2 A|ABd e2 f|d2 A B3|
ABd ede|fdB BAF|AFE EFA|B3 d3:|

